template/lc_configure2.svg

<?xml version="1.0" encoding="UTF-8" standalone="no"?>
<?xml-stylesheet type="text/css" href="icons.css" ?><svg
   xmlns:dc="http://purl.org/dc/elements/1.1/"
   xmlns:cc="http://creativecommons.org/ns#"
   xmlns:rdf="http://www.w3.org/1999/02/22-rdf-syntax-ns#"
   xmlns:svg="http://www.w3.org/2000/svg"
   xmlns="http://www.w3.org/2000/svg"
   xmlns:sodipodi="http://sodipodi.sourceforge.net/DTD/sodipodi-0.dtd"
   xmlns:inkscape="http://www.inkscape.org/namespaces/inkscape"
   viewBox="0 0 24 24"
   version="1.1"
   id="svg11"
   sodipodi:docname="lc_configure2.svg"
   inkscape:version="0.92.5 (2060ec1f9f, 2020-04-08)">
  <metadata
     id="metadata17">
    <rdf:RDF>
      <cc:Work
         rdf:about="">
        <dc:format>image/svg+xml</dc:format>
        <dc:type
           rdf:resource="http://purl.org/dc/dcmitype/StillImage" />
        <dc:title></dc:title>
      </cc:Work>
    </rdf:RDF>
  </metadata>
  <defs
     id="defs15" />
  <sodipodi:namedview
     pagecolor="#ffffff"
     bordercolor="#666666"
     borderopacity="1"
     objecttolerance="10"
     gridtolerance="10"
     guidetolerance="10"
     inkscape:pageopacity="0"
     inkscape:pageshadow="2"
     inkscape:window-width="1920"
     inkscape:window-height="1002"
     id="namedview13"
     showgrid="true"
     inkscape:pagecheckerboard="true"
     inkscape:zoom="13.906433"
     inkscape:cx="24.223057"
     inkscape:cy="0.19644458"
     inkscape:window-x="0"
     inkscape:window-y="0"
     inkscape:window-maximized="1"
     inkscape:current-layer="svg11">
    <inkscape:grid
       type="xygrid"
       id="grid824" />
  </sodipodi:namedview>
  <g
     id="symbol-background"
     class="icn icn--background"
     fill="#fff"
     stroke="#fff"
     stroke-width="3px"
     stroke-linecap="round"
     stroke-linejoin="round">
    <path
       d="M 18 13.5 A 4.5 4.5 0 0 0 13.5 18 A 4.5 4.5 0 0 0 18 22.5 A 4.5 4.5 0 0 0 22.5 18 A 4.5 4.5 0 0 0 18 13.5 z "
       id="path5" />
  </g>
  <path
     style="fill:#1e8bcd;stroke:none;stroke-width:1px;stroke-linecap:butt;stroke-linejoin:miter;stroke-opacity:1"
     d="m 23,18 c -6.47e-4,-0.343279 -0.03664,-0.685584 -0.107422,-1.021484 l -2.320312,-0.464844 0.755859,-2.236328 C 20.814881,13.818677 20.212461,13.470923 19.558594,13.255858 L 18,15.029297 17.531251,14.496094 16.4375,13.253906 c -0.288253,0.09362 -0.567398,0.213248 -0.833984,0.357422 -0.335712,0.185464 -0.64898,0.408939 -0.933594,0.666016 l 0.757812,2.236328 -2.316406,0.464844 C 13.03924,17.314285 13.0019,17.656586 13,18 c 6.47e-4,0.343279 0.03664,0.685584 0.107422,1.021484 l 2.320312,0.464844 -0.755859,2.236328 c 0.513244,0.458667 1.115664,0.806421 1.769531,1.021486 l 1.558595,-1.773439 1.562499,1.775391 c 0.288253,-0.09362 0.567396,-0.213252 0.833984,-0.357422 0.335712,-0.185464 0.64897,-0.408939 0.933594,-0.666016 l -0.757812,-2.236328 2.316406,-0.464844 C 22.96076,18.685715 22.9981,18.343414 23,18 Z m -1,-0.179687 1e-6,0.359375 -1.625001,0.326171 a 1.0001,1.0001 0 0 0 -0.75,1.300782 l 0.529297,1.5625 0.0019,0.0059 -0.312499,0.179688 -1.091797,-1.244141 a 1.0001,1.0001 0 0 0 -1.503906,0 l -1.091797,1.244141 -0.3125,-0.179687 0.53125,-1.56836 a 1.0001,1.0001 0 0 0 -0.75,-1.300782 l -1.625,-0.326171 -10e-7,-0.359376 1.625001,-0.326171 a 1.0001,1.0001 0 0 0 0.75,-1.300782 l -0.53125,-1.568359 0.3125,-0.179688 1.091797,1.244141 a 1.0001,1.0001 0 0 0 0.865233,0.333985 1.0001,1.0001 0 0 0 0.638673,-0.333985 l 1.091796,-1.244141 0.312501,0.179688 -0.53125,1.568359 a 1.0001,1.0001 0 0 0 0.75,1.300782 z"
     id="path831"
     inkscape:connector-curvature="0" />
  <path
     style="opacity:1;fill:#1e8bcd;fill-opacity:1;stroke:none;stroke-width:1;stroke-linecap:round;stroke-linejoin:round;stroke-miterlimit:4;stroke-dasharray:none;stroke-opacity:0.49019608"
     d="m 19,18 a 1,1 0 0 1 -1,1 1,1 0 0 1 -1,-1 1,1 0 0 1 1,-1 1,1 0 0 1 1,1 z"
     id="path872" />
</svg>

<?xml version="1.0" encoding="UTF-8" standalone="no"?>
<?xml-stylesheet type="text/css" href="icons.css" ?><svg
   xmlns:dc="http://purl.org/dc/elements/1.1/"
   xmlns:cc="http://creativecommons.org/ns#"
   xmlns:rdf="http://www.w3.org/1999/02/22-rdf-syntax-ns#"
   xmlns:svg="http://www.w3.org/2000/svg"
   xmlns="http://www.w3.org/2000/svg"
   xmlns:sodipodi="http://sodipodi.sourceforge.net/DTD/sodipodi-0.dtd"
   xmlns:inkscape="http://www.inkscape.org/namespaces/inkscape"
   viewBox="0 0 24 24"
   version="1.1"
   id="svg11"
   sodipodi:docname="lc_configure2.svg"
   inkscape:version="0.92.5 (2060ec1f9f, 2020-04-08)">
  <metadata
     id="metadata17">
    <rdf:RDF>
      <cc:Work
         rdf:about="">
        <dc:format>image/svg+xml</dc:format>
        <dc:type
           rdf:resource="http://purl.org/dc/dcmitype/StillImage" />
        <dc:title />
      </cc:Work>
    </rdf:RDF>
  </metadata>
  <defs
     id="defs15" />
  <sodipodi:namedview
     pagecolor="#ffffff"
     bordercolor="#666666"
     borderopacity="1"
     objecttolerance="10"
     gridtolerance="10"
     guidetolerance="10"
     inkscape:pageopacity="0"
     inkscape:pageshadow="2"
     inkscape:window-width="1920"
     inkscape:window-height="1002"
     id="namedview13"
     showgrid="true"
     inkscape:pagecheckerboard="true"
     inkscape:zoom="45.254834"
     inkscape:cx="12.657226"
     inkscape:cy="6.1554444"
     inkscape:window-x="0"
     inkscape:window-y="0"
     inkscape:window-maximized="1"
     inkscape:current-layer="svg11"
     inkscape:snap-global="false">
    <inkscape:grid
       type="xygrid"
       id="grid824" />
  </sodipodi:namedview>
  <path
     style="fill:#fafafa;stroke:none;stroke-width:1px;stroke-linecap:butt;stroke-linejoin:miter;stroke-opacity:1"
     d="m 16.386719,12.251953 a 1.0027936,1.0027936 0 0 0 -0.259766,0.04883 c -0.346044,0.11239 -0.679936,0.254639 -1,0.427735 a 1.0027936,1.0027936 0 0 0 -0.0078,0.0059 c -0.403027,0.222652 -0.779385,0.49018 -1.121094,0.798828 a 1.0027936,1.0027936 0 0 0 -0.277344,1.066406 l 0.392578,1.15625 -1.199219,0.240235 a 1.0027936,1.0027936 0 0 0 -0.783203,0.771484 c -0.08653,0.403035 -0.13053,0.814155 -0.132812,1.226563 a 1.0027936,1.0027936 0 0 0 0,0.0078 c 7.77e-4,0.412111 0.04392,0.823282 0.128906,1.226563 a 1.0027936,1.0027936 0 0 0 0.783203,0.77539 l 1.203125,0.240235 -0.390625,1.158203 a 1.0027936,1.0027936 0 0 0 0.28125,1.068359 c 0.616159,0.550638 1.340025,0.968375 2.125,1.226563 a 1.0027936,1.0027936 0 0 0 1.066406,-0.291016 l 0.806641,-0.917969 0.808594,0.919922 a 1.0027936,1.0027936 0 0 0 1.0625,0.291016 c 0.346054,-0.112393 0.679951,-0.254653 1,-0.427735 a 1.0027936,1.0027936 0 0 0 0.0078,-0.0059 c 0.403035,-0.222656 0.779393,-0.490198 1.121094,-0.798828 a 1.0027936,1.0027936 0 0 0 0.277344,-1.066406 l -0.392578,-1.15625 1.199219,-0.240235 a 1.0027936,1.0027936 0 0 0 0.783203,-0.771484 c 0.08653,-0.403035 0.13053,-0.814155 0.132812,-1.226563 a 1.0027936,1.0027936 0 0 0 0,-0.0078 c -7.77e-4,-0.412111 -0.04393,-0.823282 -0.128906,-1.226563 a 1.0027936,1.0027936 0 0 0 -0.783203,-0.77539 l -1.203125,-0.240235 0.390625,-1.158203 a 1.0027936,1.0027936 0 0 0 -0.28125,-1.068359 c -0.616159,-0.550638 -1.340025,-0.968375 -2.125,-1.226563 a 1.0027936,1.0027936 0 0 0 -1.066406,0.291016 l -0.806641,0.917969 -0.808594,-0.919922 a 1.0027936,1.0027936 0 0 0 -0.802734,-0.339844 z"
     id="path1471" />
  <path
     inkscape:connector-curvature="0"
     id="path1564"
     d="m 22,17.820313 1e-6,0.359375 -1.625001,0.326171 c -0.590916,0.118977 -0.943084,0.729769 -0.75,1.300782 l 0.529297,1.5625 0.0019,0.0059 -0.312499,0.179688 -1.091797,-1.244141 c -0.398372,-0.454309 -1.105534,-0.454309 -1.503906,0 l -1.091797,1.244141 -0.3125,-0.179687 0.53125,-1.56836 c 0.193084,-0.571013 -0.159084,-1.181805 -0.75,-1.300782 l -1.625,-0.326171 -10e-7,-0.359376 1.625001,-0.326171 c 0.590916,-0.118977 0.943084,-0.729769 0.75,-1.300782 l -0.53125,-1.568359 0.3125,-0.179688 1.091797,1.244141 c 0.216237,0.246413 0.539514,0.3712 0.865233,0.333985 0.247001,-0.02808 0.47469,-0.147149 0.638673,-0.333985 l 1.091796,-1.244141 0.312501,0.179688 -0.53125,1.568359 c -0.193084,0.571013 0.159084,1.181805 0.75,1.300782 z"
     style="fill:#fafafa;stroke:none;stroke-width:1px;stroke-linecap:butt;stroke-linejoin:miter;stroke-opacity:1"
     sodipodi:nodetypes="ccccccccccccccccccccccccccc" />
  <path
     style="fill:#1e8bcd;stroke:none;stroke-width:1px;stroke-linecap:butt;stroke-linejoin:miter;stroke-opacity:1"
     d="M 16.4375 13.253906 C 16.149247 13.347526 15.870102 13.467154 15.603516 13.611328 C 15.267804 13.796792 14.954536 14.020267 14.669922 14.277344 L 15.427734 16.513672 L 13.111328 16.978516 C 13.03924 17.314285 13.0019 17.656586 13 18 C 13.000647 18.343279 13.03664 18.685584 13.107422 19.021484 L 15.427734 19.486328 L 14.671875 21.722656 C 15.185119 22.181323 15.787539 22.529076 16.441406 22.744141 L 18 20.970703 L 19.5625 22.746094 C 19.850753 22.652474 20.129896 22.532842 20.396484 22.388672 C 20.732196 22.203208 21.045454 21.979733 21.330078 21.722656 L 20.572266 19.486328 L 22.888672 19.021484 C 22.96076 18.685715 22.9981 18.343414 23 18 C 22.999353 17.656721 22.96336 17.314416 22.892578 16.978516 L 20.572266 16.513672 L 21.328125 14.277344 C 20.814881 13.818677 20.212461 13.470924 19.558594 13.255859 L 18 15.029297 L 17.53125 14.496094 L 16.4375 13.253906 z M 16.15625 14.445312 L 17.248047 15.689453 A 1.0001 1.0001 0 0 0 18.113281 16.023438 A 1.0001 1.0001 0 0 0 18.751953 15.689453 L 19.84375 14.445312 L 20.15625 14.625 L 19.625 16.193359 A 1.0001 1.0001 0 0 0 20.375 17.494141 L 22 17.820312 L 22 18.179688 L 20.375 18.505859 A 1.0001 1.0001 0 0 0 19.625 19.806641 L 20.154297 21.369141 L 20.15625 21.375 L 19.84375 21.554688 L 18.751953 20.310547 A 1.0001 1.0001 0 0 0 17.248047 20.310547 L 16.15625 21.554688 L 15.84375 21.375 L 16.375 19.806641 A 1.0001 1.0001 0 0 0 15.625 18.505859 L 14 18.179688 L 14 17.820312 L 15.625 17.494141 A 1.0001 1.0001 0 0 0 16.375 16.193359 L 15.84375 14.625 L 16.15625 14.445312 z M 18 17 A 1 1 0 0 0 17 18 A 1 1 0 0 0 18 19 A 1 1 0 0 0 19 18 A 1 1 0 0 0 18 17 z "
     id="path831" />
</svg>
